src/assets/icons/pick.svg

<svg width="46" height="48" viewBox="0 0 46 48" fill="none" xmlns="http://www.w3.org/2000/svg">
<path id="Vector" d="M44.1989 22.5652C45.0501 20.9495 45.5744 19.1819 45.7421 17.3635C45.9098 15.545 45.7174 13.7114 45.1761 11.9673C44.6347 10.2232 43.755 8.60288 42.5872 7.19896C41.4193 5.79503 39.9862 4.63502 38.3699 3.7852L33.9057 1.4331L32.8079 0.85574C31.7994 0.325018 30.6824 0.0331487 29.5432 0.00266266C28.404 -0.0278234 27.273 0.203888 26.2375 0.679913L11.2328 7.09037C9.86128 7.67632 9.17086 9.21835 9.64725 10.6317V10.6317C10.1042 11.9874 11.4931 12.7964 12.8978 12.525L20.8134 10.996L15.4439 21.1991L7.90758 35.519C7.29559 36.6818 7.74226 38.1206 8.90519 38.7324V38.7324C10.068 39.3442 11.5065 38.8975 12.1183 37.7347L19.6552 23.4098L21.7353 24.5039L19.031 29.6461C18.4198 30.8083 18.8664 32.2459 20.0285 32.8573V32.8573C21.1908 33.4688 22.6289 33.0221 23.2402 31.8596L25.944 26.7181L28.0242 27.8122L26.1895 31.2994C25.5776 32.4623 26.0244 33.9011 27.1873 34.5129V34.5129C28.3502 35.1247 29.7888 34.6779 30.4006 33.5151L32.2355 30.0278L34.3167 31.1313L33.4016 32.8754C32.7916 34.0379 33.2395 35.4749 34.402 36.0849V36.0849C35.5646 36.6951 37.0017 36.2472 37.6118 35.0845L38.5267 33.3409L44.1978 22.5617L44.1989 22.5652ZM3.933 35.4079C3.05817 36.2835 2.46235 37.3987 2.22074 38.6126C1.97914 39.8265 2.10258 41.0848 2.57549 42.2286C3.0484 43.3725 3.84957 44.3506 4.87788 45.0394C5.90619 45.7283 7.11554 46.0971 8.35327 46.0993C9.35629 46.0982 10.3444 45.8565 11.2347 45.3945C12.125 44.9325 12.8915 44.2637 13.4698 43.4442C14.0482 42.6247 14.4215 41.6785 14.5586 40.6849C14.6956 39.6913 14.5923 38.6793 14.2573 37.7338L15.3621 35.6455C16.1011 36.8844 16.4989 38.297 16.515 39.7395C16.5311 41.182 16.1649 42.603 15.4537 43.8581C14.7426 45.1132 13.7117 46.1576 12.466 46.8851C11.2203 47.6126 9.80411 47.9973 8.36152 48C6.24757 47.9997 4.21617 47.1794 2.69479 45.7117C1.17342 44.244 0.280709 42.2433 0.204527 40.1307C0.128345 38.0182 0.874632 35.9584 2.28634 34.3849C3.69805 32.8115 5.66509 31.847 7.77352 31.6944L6.66274 33.8066C5.63013 34.0964 4.68986 34.648 3.933 35.4079Z" fill="#BFFFC8"/>
</svg>

<svg width="46" height="48" fill="none" xmlns="http://www.w3.org/2000/svg"><path d="M44.199 22.565a13.898 13.898 0 0 0-5.83-18.78l-4.463-2.352-1.098-.577a7.438 7.438 0 0 0-6.57-.176L11.232 7.09a2.858 2.858 0 0 0 1.665 5.435l7.915-1.529-5.37 10.203-7.535 14.32a2.379 2.379 0 1 0 4.21 2.216l7.537-14.325 2.08 1.094-2.704 5.142a2.378 2.378 0 1 0 4.21 2.213l2.703-5.14 2.08 1.093L26.19 31.3a2.38 2.38 0 1 0 4.211 2.216l1.835-3.487 2.082 1.103-.915 1.744a2.377 2.377 0 1 0 4.21 2.21l.915-1.744 5.67-10.78.002.004zM3.933 35.408a6.264 6.264 0 0 0 4.42 10.691 6.27 6.27 0 0 0 5.904-8.365l1.105-2.089a8.17 8.17 0 0 1-7 12.355 8.163 8.163 0 0 1-.588-16.306l-1.111 2.113a6.228 6.228 0 0 0-2.73 1.6z" fill="#BFFFC8"/></svg>
